X: 10
T:Maid of the Mill, Ilmington 1
M:6/8
L:1/8
A:Ilmington
P:A(AB2)4A
K:CMix
P:A
|:G|G2c cBc|def g2c|A2A BAG|c3 c2:|
P:B
e/f/|g2g gfe|fef f2e|def ged|c3=B2G|
G2c cBc|def g2c|A2A BAG|c3 c2:|
